X:294
T:Old Torn Petticoat, The
R:reel
H:See also #570, slide#104
D:Michael Tubridy: The Eagle's Whistle
Z:id:hn-reel-294
M:C|
K:Ador
c2Bc AGEF|G2BG dGBG|cABG AE~E2|GABG A2AB|
c2Bc AGEF|G2BG dGBG|cABG AE~E2|GABG A2AB:|
cdef g2fg|gedc BG~G2|cdef g2fg|eaag aged|
cdef g2fg|gedc BG~G2|cABG AE~E2|GABG A2AB||
cdef g2fg|gedc BG~G2|cdef g2fg|eaag a2ga|
bagb agef|gedc BG~G2|cABG AE~E2|GABG A2AB||
P:Variations:
|:cABG AGEF|G2BG dGBG|cABG AGED|EAAG A2AB|
cABG AGEF|G2BG dGBG|cABG AGED|EAAG A2AB:|
cdef g2fg|gedc BAGB|cdef gefd|eaag a2AB|
cdef g2fg|gedc BAGB|cABG AGED|EAAG A2AB||
cdef g2fg|gedc BAGB|cdef gefd|eaag a2ga|
bagb agef|gedc BAGB|cABG AGED|EAAG A2AB||

